images/pencil.svg

<svg width="24" height="24" viewBox="0 0 24 24" fill="none" xmlns="http://www.w3.org/2000/svg">
<g id="create_24px">
<path id="icon/content/create_24px" fill-rule="evenodd" clip-rule="evenodd" d="M18.3688 3.29L20.7088 5.63C21.0988 6.02 21.0988 6.65 20.7088 7.04L18.8788 8.87L15.1288 5.12L16.9588 3.29C17.1488 3.1 17.3988 3 17.6588 3C17.9188 3 18.1688 3.09 18.3688 3.29ZM2.99878 17.25V21H6.74878L17.8088 9.94L14.0588 6.19L2.99878 17.25ZM5.91878 19H4.99878V18.08L14.0588 9.02L14.9788 9.94L5.91878 19Z" fill="#333333"/>
</g>
</svg>

<svg width="24" height="24" fill="none" xmlns="http://www.w3.org/2000/svg"><path fill-rule="evenodd" clip-rule="evenodd" d="M18.369 3.29l2.34 2.34c.39.39.39 1.02 0 1.41l-1.83 1.83-3.75-3.75 1.83-1.83c.19-.19.44-.29.7-.29.26 0 .51.09.71.29zM2.999 17.25V21h3.75l11.06-11.06-3.75-3.75-11.06 11.06zM5.919 19h-.92v-.92l9.06-9.06.92.92L5.919 19z" fill="#333"/></svg>
